app/assets/images/heroicons/mini/document-currency-bangladeshi.svg

<svg width="20" height="20" viewBox="0 0 20 20" fill="none" xmlns="http://www.w3.org/2000/svg">
<path fill-rule="evenodd" clip-rule="evenodd" d="M4.5 2C3.67157 2 3 2.67157 3 3.5V16.5C3 17.3284 3.67157 18 4.5 18H15.5C16.3284 18 17 17.3284 17 16.5V7.62132C17 7.2235 16.842 6.84197 16.5607 6.56066L12.4393 2.43934C12.158 2.15804 11.7765 2 11.3787 2H4.5ZM6.46967 6.53075C6.68069 6.74177 6.98617 6.80076 7.25 6.70771V8.00043H5.75C5.33579 8.00043 5 8.33621 5 8.75043C5 9.16464 5.33579 9.50043 5.75 9.50043H7.25V12.5981C7.25 13.5788 7.82127 14.7774 9.08697 14.9544C9.304 14.9848 9.52539 15.0004 9.75 15.0004C11.7436 15.0004 13.4486 13.7725 14.1534 12.0345C14.2471 11.8033 14.2198 11.5406 14.0804 11.3336C13.941 11.1267 13.7078 11.0026 13.4583 11.0026H11.75C11.3358 11.0026 11 11.3384 11 11.7526C11 12.1669 11.3358 12.5026 11.75 12.5026H12.0933C11.5015 13.118 10.67 13.5004 9.75 13.5004C9.5951 13.5004 9.44315 13.4896 9.29476 13.4689C9.0454 13.434 8.75 13.1472 8.75 12.5981V9.50043H14.25C14.6642 9.50043 15 9.16464 15 8.75043C15 8.33621 14.6642 8.00043 14.25 8.00043H8.75V6.41464C8.75 5.22458 7.31117 4.62859 6.46967 5.47009C6.17678 5.76299 6.17678 6.23786 6.46967 6.53075Z" fill="black"/>
</svg>

<svg xmlns="http://www.w3.org/2000/svg" viewBox="0 0 20 20" fill="currentColor" aria-hidden="true" data-slot="icon">
  <path fill-rule="evenodd" d="M4.5 2A1.5 1.5 0 0 0 3 3.5v13A1.5 1.5 0 0 0 4.5 18h11a1.5 1.5 0 0 0 1.5-1.5V7.621a1.5 1.5 0 0 0-.44-1.06l-4.12-4.122A1.5 1.5 0 0 0 11.378 2H4.5Zm1.97 4.53a.75.75 0 0 0 .78.178V8h-1.5a.75.75 0 1 0 0 1.5h1.5v3.098c0 .98.571 2.18 1.837 2.356a4.751 4.751 0 0 0 5.066-2.92.75.75 0 0 0-.695-1.031H11.75a.75.75 0 0 0 0 1.5h.343a3.241 3.241 0 0 1-2.798.966c-.25-.035-.545-.322-.545-.87V9.5h5.5a.75.75 0 0 0 0-1.5h-5.5V6.415c0-1.19-1.439-1.786-2.28-.945a.75.75 0 0 0 0 1.06Z" clip-rule="evenodd"/>
</svg>
